storage-tank-outline.svg

<svg fill="currentColor" viewBox="0 0 24 24"><path d="M17 6h-1V5c0-1.1-.9-2-2-2h-4c-1.1 0-2 .9-2 2v1H7c-3.31 0-6 2.69-6 6s2.69 6 6 6v3h2v-3h6v3h2v-3c3.31 0 6-2.69 6-6s-2.69-6-6-6m-7-1h4v1h-4zm7 11H7c-2.21 0-4-1.79-4-4s1.79-4 4-4h10c2.21 0 4 1.79 4 4s-1.79 4-4 4"/></svg>

<svg  viewBox="0 0 24 24" fill="currentColor"><path  d="M17 6H16V5C16 3.9 15.1 3 14 3H10C8.9 3 8 3.9 8 5V6H7C3.69 6 1 8.69 1 12S3.69 18 7 18V21H9V18H15V21H17V18C20.31 18 23 15.31 23 12S20.31 6 17 6M10 5H14V6H10V5M17 16H7C4.79 16 3 14.21 3 12S4.79 8 7 8H17C19.21 8 21 9.79 21 12S19.21 16 17 16Z"/></svg>
